lib/logo_tmp/nrk-logo-nrk-3--colorblack.svg

<svg width="62" height="26" viewBox="0 0 62 26" fill="none" xmlns="http://www.w3.org/2000/svg">
<path d="M31.09 13.56C31.12 13.63 34.39 19 34.39 19H29.77C29.77 19 27.01 14.49 26.63 13.84C26.25 13.2 26.23 12.8 26.61 12.17L29.77 7H34.4L31.06 12.46C30.82 12.87 30.84 13.13 31.09 13.56ZM21.59 19V7H25.8V19H21.6H21.59ZM18.94 6.77C19.5748 6.77264 20.1827 7.02667 20.6306 7.47647C21.0785 7.92627 21.33 8.53521 21.33 9.17C21.33 9.80479 21.0785 10.4137 20.6306 10.8635C20.1827 11.3133 19.5748 11.5674 18.94 11.57C18.307 11.5647 17.7016 11.3095 17.2559 10.86C16.8101 10.4105 16.56 9.80307 16.56 9.17C16.56 8.53693 16.8101 7.92949 17.2559 7.47997C17.7016 7.03046 18.307 6.77527 18.94 6.77ZM12.06 19V7H16.26V19H12.06ZM0 19V7H4.2V19H0ZM9.5 8.93L11.77 19H7.2L4.48 7H7.18C8.33 7 9.29 7.83 9.51 8.93H9.5Z" fill="black"/>
<path d="M49 1C47.4241 1 45.8637 1.31039 44.4078 1.91345C42.9519 2.5165 41.629 3.40042 40.5147 4.51472C39.4004 5.62902 38.5165 6.95189 37.9134 8.4078C37.3104 9.86371 37 11.4241 37 13C37 14.5759 37.3104 16.1363 37.9134 17.5922C38.5165 19.0481 39.4004 20.371 40.5147 21.4853C41.629 22.5996 42.9519 23.4835 44.4078 24.0866C45.8637 24.6896 47.4241 25 49 25C52.1826 25 55.2348 23.7357 57.4853 21.4853C59.7357 19.2348 61 16.1826 61 13C61 9.8174 59.7357 6.76515 57.4853 4.51472C55.2348 2.26428 52.1826 1 49 1Z" fill="#91C73E"/>
<path d="M49.5 19.14H44.2V15.94H49.5C49.8527 15.94 50.191 15.7999 50.4405 15.5505C50.6899 15.301 50.83 14.9627 50.83 14.61C50.83 14.2573 50.6899 13.919 50.4405 13.6695C50.191 13.4201 49.8527 13.28 49.5 13.28H46.17L48.39 10.07H44.19V6.85H53.79L51.31 10.45C52.2649 10.8674 53.0471 11.6005 53.5254 12.5264C54.0037 13.4522 54.1489 14.5145 53.9366 15.5347C53.7243 16.555 53.1676 17.4712 52.3597 18.1295C51.5518 18.7878 50.5421 19.1481 49.5 19.15V19.14Z" fill="white"/>
</svg>

<svg xmlns="http://www.w3.org/2000/svg" viewBox="0 0 62 26"><path fill="#000" d="M31.09 13.56c.03.07 3.3 5.44 3.3 5.44h-4.62s-2.76-4.51-3.14-5.16c-.38-.64-.4-1.04-.02-1.67L29.77 7h4.63l-3.34 5.46c-.24.41-.22.67.03 1.1ZM21.59 19V7h4.21v12h-4.21ZM18.94 6.77a2.4 2.4 0 0 1 0 4.8 2.4 2.4 0 0 1 0-4.8ZM12.06 19V7h4.2v12h-4.2ZM0 19V7h4.2v12H0ZM9.5 8.93 11.77 19H7.2L4.48 7h2.7c1.15 0 2.11.83 2.33 1.93H9.5Z"/><path fill="#91C73E" d="M49 1a12 12 0 1 0 0 24 12 12 0 0 0 0-24Z"/><path fill="#fff" d="M49.5 19.14h-5.3v-3.2h5.3a1.33 1.33 0 0 0 0-2.66h-3.33l2.22-3.21h-4.2V6.85h9.6l-2.48 3.6a4.54 4.54 0 0 1-1.81 8.7v-.01Z"/></svg>
